X:46
T:Country Dance. RDO.46
T:?aka
M:C|
L:1/8
Q:1/2=60
S:Robert D. Owen MS,Indiana,1826.
R:.Air
O:Indiana,USA
A:New Harmony
Z:vmp.Chris Partington
K:G
G>A|B2D2E2G2|(cB)AGE2DE|G2g2degd|e4d2(ef)|!
(gf)ed efgB|cBAGE2DE|G2g2de cd|B3AG2:|!
|:ef|(gf)ed (ef)ge|(ag)fe (fg)af|(gf)ga agab|”tr”e4d2ga|!
bage d>egB|cBAGE2DE|G2g2decd|B3AG2:|

